icons/home-garage-circle.svg

<svg width="24" height="24" viewBox="0 0 24 24" fill="none" xmlns="http://www.w3.org/2000/svg">
<path fill-rule="evenodd" clip-rule="evenodd" d="M10.7481 4.69487C11.4629 4.05158 12.5299 4.05158 13.2447 4.69487L18.2509 9.10043L18.2525 9.10183C18.8753 9.64677 19.1964 10.4337 19.1964 11.2374V18.3686L19.199 18.3997C19.2576 19.1024 18.6702 19.7874 17.7464 19.7874H17.2964V17.5375V15.9375C17.2964 14.7233 16.3607 13.7875 15.1464 13.7875H8.94641C7.7322 13.7875 6.79639 14.7233 6.79639 15.9375V17.5375V19.7874H6.2464C5.4606 19.7874 4.79639 19.1232 4.79639 18.3374V11.2374C4.79639 10.4825 5.17991 9.67234 5.7607 9.08386L10.7419 4.70047L10.7481 4.69487ZM15.7964 15.9375V16.7875H8.29639V15.9375C8.29639 15.5517 8.56062 15.2875 8.94641 15.2875H15.1464C15.5322 15.2875 15.7964 15.5517 15.7964 15.9375ZM15.7964 19.7874V18.2875H8.29639V19.7874H15.7964ZM7.53531 21.2874L7.54639 21.2875L7.55746 21.2874H16.5353L16.5464 21.2875L16.5575 21.2874H17.7464C19.4116 21.2874 20.8167 19.9897 20.6964 18.3086V11.2374C20.6964 10.0415 20.2178 8.82879 19.2412 7.97377L19.2403 7.97296L14.2448 3.57693C12.9606 2.42421 11.0321 2.42423 9.74796 3.57697L4.73298 7.99016L4.71607 8.00707C3.90582 8.81731 3.29639 9.99927 3.29639 11.2374V18.3374C3.29639 19.9516 4.6322 21.2874 6.2464 21.2874H7.53531ZM10.7964 9.53748C10.7964 8.84712 11.356 8.28748 12.0464 8.28748C12.7367 8.28748 13.2964 8.84712 13.2964 9.53748C13.2964 10.2278 12.7367 10.7875 12.0464 10.7875C11.356 10.7875 10.7964 10.2278 10.7964 9.53748ZM12.0464 6.78748C10.5276 6.78748 9.29639 8.01869 9.29639 9.53748C9.29639 11.0563 10.5276 12.2875 12.0464 12.2875C13.5652 12.2875 14.7964 11.0563 14.7964 9.53748C14.7964 8.01869 13.5652 6.78748 12.0464 6.78748Z" fill="black"/>
</svg>

<svg xmlns="http://www.w3.org/2000/svg" fill="none" viewBox="0 0 24 24">
  <path fill="#000" fill-rule="evenodd" d="M10.748 4.695a1.856 1.856 0 0 1 2.497 0L18.25 9.1l.002.002c.622.545.943 1.332.943 2.135v7.132l.003.03c.059.703-.529 1.388-1.453 1.388h-.45v-3.85c0-1.214-.935-2.15-2.15-2.15h-6.2c-1.214 0-2.15.936-2.15 2.15v3.85h-.55a1.47 1.47 0 0 1-1.45-1.45v-7.1c0-.755.384-1.565.965-2.153L10.74 4.7l.007-.005Zm5.048 11.242v.85h-7.5v-.85c0-.385.265-.65.65-.65h6.2c.386 0 .65.265.65.65Zm0 3.85v-1.5h-7.5v1.5h7.5Zm-8.26 1.5h10.21c1.666 0 3.07-1.297 2.95-2.978v-7.072c0-1.196-.478-2.408-1.455-3.263v-.001l-4.996-4.396a3.356 3.356 0 0 0-4.497 0L4.733 7.99l-.017.017c-.81.81-1.42 1.992-1.42 3.23v7.1a2.97 2.97 0 0 0 2.95 2.95h1.29Zm3.26-11.75a1.25 1.25 0 1 1 2.5 0 1.25 1.25 0 0 1-2.5 0Zm1.25-2.75a2.75 2.75 0 1 0 0 5.5 2.75 2.75 0 0 0 0-5.5Z" clip-rule="evenodd"/>
</svg>
